!!!COM: Beethoven, Ludwig van
!!!CDT: 1770///-1827///
!!!OTL: Piano Sonata no. 4 in E-flat major
!!!OTP: grand sonata
!!!ODE: a Madame la Comtesse Babette de Keglevics
!!!OMD: Rondo: Poco allegretto e grazioso
!!!OPS: 7
!!!OMV: 4
!!!AGN: Rondo
**kern	**kern	**dynam
*staff2	*staff1	*staff1/2
*Ipiano	*Ipiano	*Ipiano
*>[A,B,B1,B,B2,C,C1,C,C2,D]	*>[A,B,B1,B,B2,C,C1,C,C2,D]	*>[A,B,B1,B,B2,C,C1,C,C2,D]
*>A	*>A	*>A
*clefF4	*clefG2	*
*k[b-e-a-]	*k[b-e-a-]	*
*E-:	*E-:	*
*M2/4	*M2/4	*
*MM60	*MM60	*
4r	(8.ffL	p
.	16ee-Jk)	.
=1	=1	=1
*^	*^	*
4.ryy	16BB-LL	(8ee-L	4.f 4.a-	.
.	16B-	.	.	.
.	16B-	[8ddJ)	.	.
.	16B-JJ	.	.	.
.	16B-LL	(16ddLL]	.	.
.	16B-	16ff	.	.
(8e-	16e-	16ee-	8g	.
.	16B-JJ	16ccJJ)	.	.
=2	=2	=2	=2	=2
4d)	16dLL	(8ccL	4f	.
.	16B-	.	.	.
.	16B-	[8b-J)	.	.
.	16B-JJ	.	.	.
4ryy	16B-LL	(16b-LL]	8r	.
.	16B-	16bn	.	.
.	16D	16cc	8f	.
.	16B-JJ	16a-JJ)	.	.
*v	*v	*	*	*
*	*v	*v	*
=3	=3	=3
16E-LL	(16a-LL	.
16B-	16g	.
16G	16b-X	.
16B-JJ	16e-JJ)	.
16F 16A-LL	(16e-LL	.
16B-	16d	.
16E- 16G	16f)	.
16B-JJ	([16e-JJ	.
=4	=4	=4
16BB-LL	8e-] 8gL	.
16B-	.	.
16B-	8d) 8fJ	.
16B-JJ	.	.
*clefG2	*	*
(16a- 16ccLL	(8.ffL	.
16B-	.	.
16g 16b-	.	.
16B-JJ)	16ee-Jk)	.
!!LO:LB:g=original
=5	=5	=5
*^	*	*
.	.	(16qddLL	.
.	.	16qee-	.
.	.	16qffJJ	.
4a-	16fLL	(8ee-L)	.
.	16B-	.	.
.	16B-	[8ddJ)	.
.	16B-JJ	.	.
(8a-L	16fLL	(16ddLL]	.
.	16B-	16ff	.
8gJ)	16e-	16ee-	.
.	16B-JJ	16ccJJ)	.
=6	=6	=6	=6
*	*	*^	*
4f	16dLL	(8anL	4ryy	.
.	16B-	.	.	.
.	16B-	[8b-J)	.	.
.	16B-JJ	.	.	.
*v	*v	*	*	*
*clefF4	*	*	*
*^	*	*	*
4ryy	16B-LL	(16b-LL]	8rc	.
.	16B-	16bn	.	.
.	16D	16cc	8f	.
.	16B-JJ	16a-JJ)	.	.
*v	*v	*	*	*
=7	=7	=7	=7
16E-LL	(16gLL	8e-L	.
16G	16b-X	.	.
16AA-	16a-	8cJ	.
16A-JJ	16fJJ)	.	.
16BB-LL	(8e-L	8GL	.
16BB-	.	.	.
16BBB-	16gLk	8A- 8dJ	.
16BB-JJ	16fJJ)	.	.
*	*v	*v	*
=8	=8	=8
*^	*	*
4.ryy	8EE-L	8G 8e-	.
.	8E-J	8r	.
.	16r	(32GLLL	.
.	.	32B-	.
.	16B-LL	32e-	.
.	.	32gJJJ	.
(8G	16G	32b-LLL	.
.	.	32ee-	.
.	16B-JJ	32gg	.
.	.	32ffJJJ)	.
=9	=9	=9	=9
*flip	*flip	*	*
8A-L	16A-LL	(8ee-L	.
.	16B-	.	.
8FJ	16F	8ddJ)	.
.	16B-JJ	.	.
8GL	16GLL	16ee-'LL	<
.	16B-	16ff'	.
8E-J	16E-	16gg'	.
.	16B-JJ)	16aan'JJ	[[
!!LO:LB:g=original
=10	=10	=10	=10
4ryy	16BB-LL	(8cccL	sf
.	16B-	.	.
.	16B-	8bb-J)	.
.	16B-JJ	.	.
8rA	16rD	(32GLLL	.
.	.	32B-	.
.	16B-LL	32e-	.
.	.	32gJJJ	.
(8G	16G	32b-LLL	.
.	.	32ee-	.
.	16B-JJ	32gg	.
.	.	32ffJJJ)	.
=11	=11	=11	=11
8A-L	16A-LL	8ee-L	.
.	16B-	.	.
8FJ	16F	8ddtJ	.
.	16B-JJ	.	.
.	.	(16qccLL	.
.	.	16qddJJ	.
8GL	16GLL	16e-' 16ee-')LL	<
.	16B-	16f' 16ff'	.
8E-J	16E-	16g' 16gg'	.
.	16B-JJ	16an' 16aan'JJ	[[
*v	*v	*	*
=12	=12	=12
4BB-; 4B-;)	4b-; 4bb-;	sf
*clefG2	*	*
(16a- 16ccLL	(8.ff 8.fffL	p
16B-	.	.
16g 16b-	.	.
16B-JJ)	16ee- 16eee-Jk))	.
=13	=13	=13
*^	*	*
4a-	16fLL	8ee- (8eee-L	<
.	16B-	.	.
.	16B-	8dd [8dddJ)	.
.	16B-JJ	.	.
(8a-L	16fLL	16dd (16dddLL]	.
.	16B-	16ff 16fff	.
8gJ)	16e-	16ee- 16eee-	.
.	16B-JJ	16cc 16cccJJ)	[[
=14	=14	=14	=14
4f	16dLL	8an (8aanL	rfz
.	16B-	.	.
.	16B-	[8b- [8bb-J)	.
.	16B-JJ	.	.
*v	*v	*	*
*clefF4	*	*
*^	*	*
4ryy	16B-LL	16b-] (16bb-LL]	.yy
.	16B-	16bn 16bbn	.
.	16D 16d	16cc 16ccc	.
.	16B-JJ	16a- 16aa-JJ)	.
*v	*v	*	*
!!LO:LB:g=original
=15	=15	=15
*	*^	*
16E- 16e-LL	4ryy	16g (16ggLL	.
16G	.	16b-X 16bb-X	.
16AA-	.	16cc 16aa-	.
16A-JJ	.	16a- 16ffJJ)	.
16BB-LL<	(8ee-SSsL	8gL	.
16B-	.	.	.
16BBB-	16ggL	8a- 8ddJ	.
16BB-JJ	16ffJJ)	.	.
=16	=16	=16	=16
8EE-L	8ee-	8g	.
8E-J	4.ryy	8r	.
!	!	!	!LO:DY:b=2
32GGGLLL	.	16r	f
32BBB-	.	.	.
32EE-	.	16B-LL	.
32GGJJJ	.	.	.
32BB-LLL	.	16B-	.
32E-	.	.	.
32G	.	16B-JJ	.
32FJJJ	.	.	.
=17	=17	=17	=17
(8E-L	4ryy	16A- 16B-LL	.
.	.	16A- 16B-	.
8DJ)	.	16A- 16B-	.
.	.	16A- 16B-JJ	.
4ryy	8rff	16G 16B-LL>	.
.	.	16G 16B-	.
!	!	!LO:TX:a:i:t=m.g.	!
!	!	!	!LO:DY:a:rj
.	8ee-	16G 16B-	p
.	.	16G 16B-JJ	.
=18	=18	=18	=18
4ryy	(8ee-L	16A-LL>	.
.	.	16A-	.
.	8ddJ)	16A-	.
.	.	16A-JJ	.
32GGGLLL	4ryy	16G 16B-LL	.
32BBB-	.	.	.
32EE-	.	16G 16B-	.
32GGJJJ	.	.	.
32BB-LLL	.	16G 16B-	.
32E-	.	.	.
32G	.	16G 16B-JJ	.
32FJJJ	.	.	.
*	*v	*v	*
!!LO:LB:g=original
=19	=19	=19
(8E-L	16A- 16B-LL	.
.	16A- 16B-	.
8DJ)	16A- 16B-	.
.	16A- 16B-JJ	.
16F 16A- 16BnLL>	8r	.
16F 16A- 16B	.	.
!	!LO:TX:a:i:t=m.g.	!LO:DY:a:rj
16F 16A- 16B	8dd/	p
16F 16A- 16BJJ	.	.
=20	=20	=20
16F 16G 16B-LL>	(>8ddL>	.
16F 16G 16B-	.	.
16E- 16G 16c	8ee-J)	.
16E- 16G 16cJJ	.	.
32r	16G 16c 16e-LL	.
!	!	!LO:DY:b=2:rj
32GGGLLL	.	f
32CC	16G 16c 16e-	.
32EE-JJJ	.	.
32GGLLL	16G 16c 16e-	.
32C	.	.
32E-	16G 16c 16e-JJ	.
32DJJJ	.	.
=21	=21	=21
*	*^	*
(8CL	4ryy	16F 16d 16fLL	.
.	.	16G 16d 16f	.
8BBnJ)	.	16G 16d 16f	.
.	.	16G 16d 16fJJ	.
4r	8rccc	16G 16c 16e-LL>	.
.	.	16G 16c 16e-	.
.	8ccc	16G 16c 16e-	p
.	.	16G 16c 16e-JJ	.
=22	=22	=22	=22
4r	(8cccL	16G 16d 16fLL>	.
.	.	16G 16d 16f	.
.	8bbnJ)	16G 16d 16f	.
.	.	16G 16d 16fJJ	.
8r	4ryy	16G 16c 16e-LL	.
.	.	16G 16c 16e-	.
!	!	!	!LO:DY:b=2:rj
8CC 8C	.	16G 16c 16e-	f
.	.	16G 16c 16e-JJ	.
=23	=23	=23	=23
(8BBB-X 8BB-XL	4ryy	16F 16c 16e-LL	.
.	.	16F 16c 16e-	.
8AAAn) 8AAnJ	.	16F 16c 16e-	.
.	.	16F 16c 16e-JJ	.
4r	8rccc	16F 16B- 16dLL>	.
.	.	16F 16B- 16d	.
!	!	!	!LO:DY:a:rj
.	8bb-	16F 16B- 16d	p
.	.	16F 16B- 16dJJ	.
!!LO:LB:g=original
=24	=24	=24	=24
4ryy	(8bb-L	16F 16c 16e-LL	.
.	.	16F 16c 16e-	.
.	8aanJ)	16F 16c 16e-	.
.	.	16F 16c 16e-JJ	.
16r	4ryy	16F 16B- 16dLL	.
!	!	!	!LO:DY:b=2
16BB-LL	.	16F 16B- 16d	p
16BB-	.	16F 16B- 16d	.
16BB-JJ	.	16F 16B- 16dJJ	.
=25	=25	=25	=25
(32AAnLLL	4ryy	16F 16c 16e-LL	.
32BB-	.	.	.
32C	.	16F 16c 16e-	.
32BB-JJ)	.	.	.
8AA'J	.	16F 16c 16e-	.
.	.	16F 16c 16e-JJ	.
!	!	!	!LO:DY:a
4ryy	16rccc	16F 16B- 16dLL>	rfz
.	16bb-LL	16F 16B- 16d	.
.	16bb-	16F 16B- 16d	.
.	16bb-JJ	16F 16dJJ	.
=26	=26	=26	=26
4ryy	(32aanLLL	16F 16c 16e-LL>	.
.	32bb-	.	.
.	32ccc	16F 16c 16e-	.
.	32bb-JJ)	.	.
.	8aa'J	16F 16c 16e-	.
.	.	16F 16c 16e-JJ	.
16r	4ryy	16F 16B- 16dLL	.
!	!	!	!LO:DY:b=2:rj
16BB-LL	.	16F 16B- 16d	f
16BB-	.	16F 16B- 16d	.
16BB-JJ	.	16F 16B- 16dJJ	.
*	*v	*v	*
=27	=27	=27
(32AAnLLL	4F 4c 4e-	.
32BB-	.	.
32C	.	.
32BB-JJJ)	.	.
16AA'LL	.	.
16FF'JJ	.	.
(32BB-LLL	4F 4B- 4d	.
32C	.	.
32D	.	.
32CJJJ)	.	.
16BB-'LL	.	.
16FF'JJ	.	.
!!LO:LB:g=original
=28	=28	=28
*^	*	*
4F	8.C 8.E-L	(32anLLL>	.
.	.	32b-	.
.	.	32cc	.
.	.	32b-JJJ)	.
.	.	16a'LL	.
.	16FFJk	16f'JJ	.
4F	8.DL	(32b-LLL	.
.	.	32cc	.
.	.	32dd	.
.	.	32ccJJJ)	.
.	.	16b-'LL	.
.	16FFJk	16f'JJ	.
*v	*v	*	*
=29	=29	=29
(32AAnLLL	4e-' 4f' 4ee-'	.
32BB-	.	.
32C	.	.
32BB-JJJ)	.	.
16AA'LL	.	.
16FF'JJ	.	.
(32BB-LLL	8.d 8.f 8.ddL	.
32C	.	.
32D	.	.
32CJJJ)	.	.
16BB-'LL	.	.
16FF'JJ	16fJk	.
=30	=30	=30
8.C 8.E- 8.FL<	(32anLLL>	.
.	32b-	.
.	32cc	.
.	32b-JJJ)	.
.	16a'LL	.
16FFJk	16f'JJ	.
8.D 8.FL	(32b-LLL	.
.	32cc	.
.	32dd	.
.	32ccJJJ)	.
.	16b-'LL	.
16D 16F 16A-XJk	16bn'JJ	.
=31	=31	=31
8E- 8G	(32ccLLL	f
.	32dd	.
.	32ee-	.
.	32ddJJJ)	.
8r	16cc'LL	.
.	16gg'JJ	.
4r	16ee-'LL	.
.	16ccc'	.
.	16gg'	.
.	16eee-'JJ	.
!!LO:LB:g=original
=32	=32	=32
8F 8An 8c 8e-	(32ccLLL	fp
.	32dd	.
.	32ee-	.
.	32ddJJJ)	.
8r	16cc'LL	.
.	16aan'JJ	.
4r	16ee-'LL	.
.	16ccc'	.
.	16aa'	.
.	16eee-'JJ	.
=33	=33	=33
8F# 8An 8c 8e-	(32ccLLL	pp
.	32dd	.
.	32ee-	.
.	32ddJJJ)	.
8r	16cc'LL	.
.	16aan'JJ	.
4r	16ee-'LL	.
.	16ccc'	.
.	16aa'	.
.	16eee-'JJ	.
=34	=34	=34
8G 8B- 8d	16ddd'LL	.
.	(16aan	.
8r	16bb-)	.
.	(16ff#JJ	.
8E- 8G 8c	16ggLL)	.
.	(16dd	.
8r	16ee-)	.
.	(16ccJJ	.
=35	=35	=35
8F 8B- 8d	16ffnLL)	.
.	(16cc#	.
8r	16dd)	.
.	(16b-JJ	.
8F 8c 8e-	16ee-LL)	.
.	(16bn	.
8r	16ccn)	.
.	(16anJJ	.
!!LO:LB:g=original
=36	=36	=36
4BB- 4B-	4d 4b-X)	.
*clefG2	*	*
8gLz	8r	.
!	!	!LO:DY:rj
(16.gt<L	8bn 8dd	p
64f#LL	.	.
64gJJJJ)	.	.
=37	=37	=37
(8e-L	8cc (8ee-L	.
8cJ)	8ee- 8ggJ)	.
8fnL	8r	.
(16.fT<L	8an 8cc	.
64enLL	.	.
64fJJJJ)	.	.
=38	=38	=38
(8dL	8b-X (8ddL	.
8B-J)	8dd 8ffJ)	.
*clefF4	*	*
8An 8c 8e-L	8ffL	.
8F 8c 8e-J	(16.ffTL	.
.	64eenLL	.
.	64ffJJJJ)	.
=39	=39	=39
4B- 4d	(16ee-XLL	.
.	16dd	.
.	16cc	.
.	16b-JJ	.
4G 4B- 4en	16anLL	.
.	16b-	.
.	16bn	.
.	16ccJJ)	.
!!LO:LB:g=original
=40	=40	=40
8F 8An	8f	.
8r	8r	.
8FL	8r	f
(16.FTL	8g'/ 8bn'/ 8dd'/	.
64EnLL	.	.
64FJJJJ)	.	.
=41	=41	=41
(8E-XL	8ggL	.
8CJ)	(16.ggtL	.
.	64ff#LL	.
.	64ggJJJJ)	.
8E-L	8r	.
(16.E-TL	8f' 8an' 8cc'	.
64DLL	.	.
64E-JJJJ)	.	.
=42	=42	=42
*^	*	*
(8DL	4ryy	8ffL	.
8BB-J)	.	(16.ffTL	.
.	.	64eenLL	.
.	.	64ffJJJJ)	.
4F	8AAn 8C 8E-L	16fff	.
.	.	16r	.
.	8FFJ	(32eeenLLL	f
.	.	32fff)	.
.	.	(32eee	.
.	.	32fffJJJ)	.
*v	*v	*	*
=43	=43	=43
8BB-' 8D' 8F'L	(16eee-XLLM	p
.	16ddd)	.
8D' 8F' 8B-'	(16cccM	.
.	16bb-JJ)	.
8F' 8An' 8c'	(16bb-LLM	.
.	16aan)	.
8E-' 8F' 8A' 8c'J	(16gg	.
.	16ffJJ)	.
!!LO:LB:g=original
=44	=44	=44
*^	*	*
4ryy	8D 8F 8B-	16ff'LL	.
.	.	(32ggL	.
.	.	32aanJJJ	.
.	8r	32bb-LLL	.
.	.	32ccc	.
.	.	32ddd	.
.	.	32eee-JJJ)	.
4F	8AAn 8C 8E-L	16fff'LL	f
.	.	(32eeenL	.
.	.	32fffJJJ)	.
.	8FFJ	(32eeeLLL	.
.	.	32fff)	.
.	.	(32eee	.
.	.	32fffJJJ)	.
*v	*v	*	*
=45	=45	=45
8BB-' 8D' 8F'L	16r	p
.	(32eee-XLLL	.
.	32dddJJJ)	.
8D' 8F' 8B-'	16r	.
.	(32cccLLL	.
.	32bb-JJJ)	.
8F' 8An' 8c'	16r	.
.	(32bb-LLL	.
.	32aanJJJ)	.
8E-' 8F' 8A' 8c'J	16r	.
.	(32ggLLL	.
.	32ffJJJ)	.
=46	=46	=46
8D 8F 8B-	(32eenLLL	.
.	32ff	.
.	32gg	.
.	32aanJJJ	.
8r	32bb-LLL	.
.	32ccc	.
.	32ddd	.
.	32eee-XJJJ	.
(8AAAn 8AAnL	32eeenLLL	ff
.	32fff	.
.	32eee	.
.	32fffJJJ	.
8FFF) 8FFJ	32eeeLLL	.
.	32fff	.
.	32eee	.
.	32fffJJJ)	.
!!LO:LB:g=original
=47	=47	=47
8BBB-' 8BB-'L	(32eee-XLLL	.
.	32ddd	.
.	32ccc	.
.	32bb-JJJ)	.
8DD' 8D'	(32bb-LLL	.
.	32aan	.
.	32gg	.
.	32ffJJJ)	.
8FF' 8F'	(32ffLLL	.
.	32ee-	.
.	32dd	.
.	32ccJJJ)	.
8FF'J	(32ddLLL	.
.	32cc	.
.	32b-	.
.	32anJJJ)	.
=48	=48	=48
*	*Xtuplet	*
4BB-	(24ccLL	.
.	24b-	.
.	24anJJ	.
.	24ccLL	.
.	24b-	.
.	24aJJ	.
4r	24ccLL	>
.	24b-	.
.	24aJJ	.
.	24ccLL	.
.	24b-	.
.	24aJJ)	.
=49	=49	=49
2r	(24ccLL	.
.	24b-	.
.	24anJJ	.
.	24ccLL	.
.	24b-	.
.	24aJJ)	.
.	(32ccLLL	.
.	32b-	.
.	32a	.
.	32b-JJJ	<
*	*tuplet	*
.	48bnLLL	.
.	48cc	.
.	48cc#	.
.	48dd	.
.	48ee-	.
.	48eenJJJ)	.
!!LO:LB:g=original
=50	=50	=50
*	*^	*
2r	([4ffz	4r	.
.	8.ffL]	[4fz [4a-z	.
.	16ee-XJk)	.	.
=51	=51	=51	=51
*^	*	*	*
4.ryy	16BB-LL	(8ee-L	4.f] 4.a-]	p
.	16B-	.	.	.
.	16B-	[8ddJ)	.	.
.	16B-JJ	.	.	.
.	16B-LL	(16ddLL]	.	.
.	16B-	16ff	.	.
(8e-	16e-	16ee-	8g	.
.	16B-JJ	16ccJJ)	.	.
=52	=52	=52	=52	=52
4d)	16dLL	(8ccL	4f	.
.	16B-	.	.	.
.	16B-	[8b-J)	.	.
.	16B-JJ	.	.	.
4ryy	16B-LL	(16b-LL]	8r	.
.	16B-	16bn	.	.
.	16D	16cc	8f	.
.	16B-JJ	16a-JJ)	.	.
*v	*v	*	*	*
*	*v	*v	*
=53	=53	=53
16E-LL	(16a-LL	.
16B-	16g	.
16G	16b-	.
16B-JJ	16e-JJ)	.
16F 16A-LL	(16e-LL	.
16B-	16d	.
16E- 16G	16f	.
16B-JJ	[16e-JJ)	.
=54	=54	=54
16BB-LL	(8e-] 8gL	.
16B-	.	.
16B-	8d) 8fJ	.
16B-JJ	.	.
*clefG2	*	*
(16a- 16ccLL	(8.ff^L	.
16B-	.	.
16g 16b-	.	.
16B-JJ)	16ee-Jk)	.
!!LO:LB:g=original
=55	=55	=55
*^	*	*
.	.	(32qddLL	.
.	.	32qee-	.
.	.	32qffJJ	.
4a-	16fLL	(8ee-L)	.
.	16B-	.	.
.	16B-	[8ddJ)	.
.	16B-JJ	.	.
(8a-L	16fLL	(16ddLL]	.
.	16B-	16ff	.
8gJ)	16e-	16ee-	.
.	16B-JJ	16ccJJ)	.
=56	=56	=56	=56
*	*	*^	*
4f	16dLL	(8anL	4ryy	.
.	16B-	.	.	.
.	16B-	[>8b-J)	.	.
.	16B-JJ	.	.	.
*v	*v	*	*	*
*clefF4	*	*	*
*^	*	*	*
16B-LL	4ryy	(16b-LL]	8rc	.
16B-	.	16bn	.	.
16D	.	16cc	8f	.
16B-JJ	.	16a-JJ)	.	.
*v	*v	*	*	*
=57	=57	=57	=57
16E-LL	(16gLL	8e-L	.
16G	16b-	.	.
16AA-	16a-	8cJ	.
16A-JJ	16fJJ)	.	.
16BB-LL	(8e-L	8GL	.
16BB-	.	.	.
16BBB-	16gL	8A- 8dJ	.
16BB-JJ	16fJJ)	.	.
*	*v	*v	*
=58	=58	=58
*^	*	*
4ryy	(8EE-L	8G 8e-	.
.	8E-J)	8r	.
16rD	8rA	(32GLLL	.
.	.	32B-	.
(16B-LL	.	32e-	.
.	.	32gJJJ	.
16G	8G	32b-LLL	.
.	.	32ee-	.
16B-JJ	.	32gg	.
.	.	32ffJJJ)	.
=59	=59	=59	=59
16A-LL	8A-L	(8ee-L	.
16B-	.	.	.
16F	8F	8ddJ))	.
16B-JJ	.	.	.
16GLL	8G	16ee-'LL	<
16B-	.	16ff'	.
16E-	8E-J	16gg'	.
16B-JJ)	.	16aan'JJ	[[
!!LO:LB:g=original
=60	=60	=60	=60
16BB-LL	4ryy	(8cccL	sf
16B-	.	.	.
16B-	.	8bb-J)	.
16B-JJ	.	.	.
8rA	16rD	(32GLLL	.
.	.	32B-	.
.	(16B-LL	32e-	.
.	.	32gJJJ	.
8G	16G	32b-LLL	.
.	.	32ee-	.
.	16B-JJ	32gg	.
.	.	32ffJJJ)	.
=61	=61	=61	=61
8A-L	16A-LL	(32ee-LLL	.
.	.	32dd	.
.	16B-	32cc	.
.	.	32b-JJJ	.
8FJ	16F	32anLLL	.
.	.	32b-	.
.	16B-JJ	32cc	.
.	.	32ddJJJ)	<
8GL	16GLL	16ee-'LL	.
.	16B-	16ff'	.
8E-J	16E-	16gg'	.
.	16B-JJ)	16aan'JJ	[[
*v	*v	*	*
=62	=62	=62
2BB- 2B-	2b- 2bb-	p <[[
=63	=63	=63
2BBn 2Bn	2bn 2bbn	sf
=64	=64	=64
32CLLL	4cc 4ccc	ff
32E-	.	.
32G	.	.
32cJJJ	.	.
32A-LLL	.	.
32G	.	.
32F#	.	.
32GJJJ	.	.
32CLLL	8r	.
32E-	.	.
32G	.	.
32cJJJ	.	.
32A-LLL	8e-'\ 8g'\ 8cc'\ 8ee-'\	.
32G	.	.
32F#	.	.
32GJJJ	.	.
!!LO:LB:g=original
=65!|:	=65!|:	=65!|:
*>B	*>B	*>B
32CLLL	4g' 4cc' 4ee-' 4gg'	.
32E-	.	.
32G	.	.
32cJJJ	.	.
32A-LLL	.	.
32G	.	.
32F#	.	.
32GJJJ	.	.
32CLLL	8r	.
32E-	.	.
32G	.	.
32cJJJ	.	.
32A-LLL	8cc' 8ee-' 8gg' 8ccc'	sf
32G	.	.
32F#	.	.
32GJJJ	.	.
=66	=66	=66
32BBnLLL	4d' 4g' 4bn' 4dd'	.
32D	.	.
32G	.	.
32BnJJJ	.	.
32A-LLL	.	.
32G	.	.
32F#	.	.
32GJJJ	.	.
32BBLLL	8r	.
32D	.	.
32G	.	.
32BJJJ	.	.
32A-LLL	8g' 8b' 8dd' 8gg'	sf
32G	.	.
32F#	.	.
32GJJJ	.	.
=67	=67	=67
32BBnLLL	4dd' 4gg' 4bbn' 4ddd'	.
32D	.	.
32G	.	.
32BnJJJ	.	.
32A-LLL	.	.
32G	.	.
32F#	.	.
32GJJJ	.	.
32BBLLL	8r	.
32D	.	.
32G	.	.
32BJJJ	.	.
32A-LLL	8dd' 8gg' 8bb' 8ddd'	sf
32G	.	.
32F#	.	.
32GJJJ	.	.
!!LO:LB:g=original
=68	=68	=68
8CL	32ee-LLL	.
.	32gg	.
.	32ccc	.
.	32eee-JJJ	.
8c 8e-J	32fffLLL	sf
.	32eee-	.
.	32ddd	.
.	32eee-JJJ	.
8BB-L	32ee-LLL	.
.	32gg	.
.	32bb-	.
.	32eee-JJJ	.
8B- 8d- 8e-J	32fffLLL	sf
.	32eee-	.
.	32dddni	.
.	32eee-JJJ	.
=69	=69	=69
8AA-L	32ee-LLL	.
.	32aa-	.
.	32ccc	.
.	32eee-JJJ	.
8A- 8c 8e-J	32fffLLL	sf
.	32eee-	.
.	32ddd	.
.	32eee-JJJ	.
8GGL	32eenLLL	.
.	32bb-	.
.	32ddd-	.
.	32eeenJJJ	.
8G 8B- 8d- 8enJ	32fffLLL	sf
.	32eee	.
.	32dddn	.
.	32eeeJJJ	.
=70	=70	=70
8AA-L	32r	.
.	32gggLLL	.
.	32ccc	.
.	32aa-JJJ	.
8A- 8c 8fJ	32r	.
.	32fffLLL	.
.	32ccc	.
.	32aa-JJJ	.
8BB-L	32r	.
.	32dddLLL	.
.	32aa-	.
.	32ffJJJ	.
8B- 8f 8a-J	32r	.
.	32dddLLL	.
.	32aa-	.
.	32ffJJJ	.
!!LO:LB:g=original
=71	=71	=71
*>B1	*>B1	*>B1
8E-	32r	.
.	32eee-LLL	.
.	32bb-	.
.	32ggJJJ	.
8r	32ee-LLL<	.
.	32b-	.
.	32g	.
.	32e-JJJ	.
8EE- 8E-L	32r	.
.	32B-LLL	.
.	32g	.
.	32b-JJJ	.
8DD 8DJ	32r	.
.	32BnLLL	.
.	32f	.
.	32bnJJJ	.
=72	=72	=72
32CLLL	4c 4e- 4g 4cc	.
32E-	.	.
32G	.	.
32cJJJ	.	.
32A-LLL	.	.
32G	.	.
32F#	.	.
32GJJJ	.	.
32CLLL	8r	.
32E-	.	.
32G	.	.
32cJJJ	.	.
32A-LLL	8e-' 8g' 8cc' 8ee-'	sf
32G	.	.
32F#	.	.
32GJJJ	.	.
=73:|!	=73:|!	=73:|!
*>B2	*>B2	*>B2
8E-	32r	.
.	32eee-LLL	.
.	32bb-	.
.	32ggJJJ	.
8r	32ee-LLL<	.
.	32b-	.
.	32g	.
.	32e-JJJ	.
8EE- 8E-L	32r	.
.	32B-LLL	.
.	32g	.
.	32b-JJJ	.
8DD- 8D-J	32r	.
.	32B-LLL	.
.	32f	.
.	32b-JJJ	.
!!LO:LB:g=original
=74!|:	=74!|:	=74!|:
*>C	*>C	*>C
32CCLLL	4G 4B- 4en	ff
32EEn	.	.
32GG	.	.
32CJJJ	.	.
32D-LLL	.	.
32C	.	.
32BBn	.	.
32CJJJ	.	.
32CCLLL	8r	.
32EE	.	.
32GG	.	.
32CJJJ	.	.
32D-LLL	8B-' 8e' 8g' 8b-'	sf
32C	.	.
32BB	.	.
32CJJJ	.	.
=75	=75	=75
32CCLLL	4en'\ 4g'\ 4b-'\ 4een'\	.
32EEn	.	.
32GG	.	.
32CJJJ	.	.
32D-LLL	.	.
32C	.	.
32BBn	.	.
32CJJJ	.	.
32CCLLL	8r	.
32EE	.	.
32GG	.	.
32CJJJ	.	.
32D-LLL	8b-' 8ee' 8gg' 8bb-'	sf
32C	.	.
32BB	.	.
32CJJJ	.	.
=76	=76	=76
32FFLLL<	4a-' 4cc' 4ff' 4aa-'	.
32AA-	.	.
32C	.	.
32FJJJ	.	.
32GLLL	.	.
32F	.	.
32En	.	.
32FJJJ	.	.
32FFLLL<	8r	.
32AA-	.	.
32C	.	.
32FJJJ	.	.
32GLLL	8cc' 8ff' 8aa-' 8ccc'	.
32F	.	.
32E	.	.
32FJJJ	.	.
!!LO:LB:g=original
=77	=77	=77
32FF#LLL<	4cc' 4ee-' 4aan' 4ccc'	.
32AAn	.	.
32C	.	.
32F#JJJ	.	.
32GLLL	.	.
32F#	.	.
32G	.	.
32F#JJJ	.	.
32FF#LLL<	8r	.
32AA	.	.
32C	.	.
32F#JJJ	.	.
32GLLL	8c 8e- 8an 8cc	.
32F#	.	.
32G	.	.
32F#JJJ	.	.
=78	=78	=78
*^	*	*
4ryy	8GG	32BnLLL	.
.	.	32d	.
.	.	32g	.
.	.	32bnJJJ	.
.	[4.G	32ccLLL	.
.	.	32b	.
.	.	32a#	.
.	.	32bJJJ	.
8rc	.	32fLLL	.
.	.	32b	.
.	.	32dd	.
.	.	32ffJJJ	.
8d	.	32ggLLL	.
.	.	32ff	.
.	.	32een	.
.	.	32ffJJJ	.
=79	=79	=79	=79
(<8cL	2G]	32e-XLLL<	.
.	.	32g	.
.	.	32cc	.
.	.	32ee-XJJJ	.
8gJ	.	32ffLLL	.
.	.	32ee-	.
.	.	32dd	.
.	.	32ee-JJJ	.
8e-L	.	32ccLLL	.
.	.	32ee-	.
.	.	32gg	.
.	.	32cccJJJ	.
8cJ)	.	32dddLLL	.
.	.	32ccc	.
.	.	32bbn	.
.	.	32cccJJJ	.
!!LO:LB:g=original
=80	=80	=80	=80
*^	*	*	*
(8GG	4.ryy	[<2GG\	32bnLLL	.
.	.	.	32dd	.
.	.	.	32gg	.
.	.	.	32bbnJJJ	.
[4G.)	.	.	32cccLLL	sf
.	.	.	32bb	.
.	.	.	32aa#	.
.	.	.	32bbJJJ	.
.	.	.	32ffLLL	.
.	.	.	32bb	.
.	.	.	32ddd	.
.	.	.	32fffJJJ	.
.	8BBn/	.	32eeenLLL	.
.	.	.	32fff	.
.	.	.	32eee	.
.	.	.	32fffJJJ	.
=81	=81	=81	=81	=81
8G]	2GG]	8CL<)	32ee-XLLL	.
.	.	.	32gg	.
.	.	.	32ccc	.
.	.	.	32eee-XJJJ	.
[4.G	.	(<8G	32fffLLL	.
.	.	.	32eee-	.
.	.	.	32ddd	.
.	.	.	32eee-JJJ	.
.	.	8E-	32ccLLL	.
.	.	.	32ee-	.
.	.	.	32gg	.
.	.	.	32cccJJJ	.
.	.	8CJ	32dddLLL	.
.	.	.	32ccc	.
.	.	.	32bbn	.
.	.	.	32cccJJJ	.
*v	*v	*v	*	*
=82	=82	=82
8GG\) 8G]\	32bbnLLL	.
.	32ddd	.
.	32ccc	.
.	32bbJJJ	.
8r	32aa-XLLL	.
.	32gg	.
.	32ff	.
.	32ee-JJJ	.
4r	32ddLLL	.
.	32cc	.
.	32bn	.
.	32a-JJJ	.
.	32gLLL<	.
.	32f	.
.	32e-	.
.	32dJJJ	.
!!LO:LB:g=original
=83	=83	=83
!	!	!LO:DY:rj
32CCLLL	4E- 4G 4c	ff
32EE-	.	.
32GG	.	.
32CJJJ	.	.
32DLLL	.	.
32C	.	.
32BBn	.	.
32CJJJ	.	.
32CCLLL	8r	.
32EE-	.	.
32GG	.	.
32CJJJ	.	.
32DLLL	8e-' 8g' 8cc' 8ee-'	sf
32C	.	.
32BB	.	.
32CJJJ	.	.
=84	=84	=84
32CCLLL	4g' 4cc' 4ee-' 4gg'	.
32EE-	.	.
32GG	.	.
32CJJJ	.	.
32DLLL	.	.
32C	.	.
32BBn	.	.
32CJJJ	.	.
32CCLLL	8r	.
32EE-	.	.
32GG	.	.
32CJJJ	.	.
32DLLL	8cc' 8ee-' 8gg' 8ccc'	sf
32C	.	.
32BB	.	.
32CJJJ	.	.
=85	=85	=85
4BBB-X 4BB-X	32cLLL	.
.	32en	.
.	32g	.
.	32ccJJJ	.
.	32dd-LLL	.
.	32cc	.
.	32bn	.
.	32ccJJJ	.
8r	32eLLL<	.
.	32g	.
.	32cc	.
.	32eenJJJ	.
8BB- 8En 8G 8B-	32ffLLL	sf
.	32ee	.
.	32dd#	.
.	32eeJJJ	.
!!LO:LB:g=original
=86	=86	=86
4BBB- 4BB-	32gLLL	.
.	32cc	.
.	32een	.
.	32ggJJJ	.
.	32aa-LLL	.
.	32gg	.
.	32ff#	.
.	32ggJJJ	.
8r	32ccLLL	.
.	32ee	.
.	32gg	.
.	32cccJJJ	.
!	!	!LO:DY:a=2
8BB- 8En 8G 8B-	32ddd-LLL	sf
.	32ccc	.
.	32bbn	.
.	32cccJJJ	.
=87	=87	=87
8AA- 8C 8F 8A-	32ccLLL	.
.	32ff	.
.	32aa-	.
.	32cccJJJ	.
8r	32dddnLLL	.
.	32ccc	.
.	32bbn	.
.	32cccJJJ	.
32FLLL	32a-LLL	.
32A-	32cc	.
32c	32ff	.
32fJJJ	32aa-JJJ	.
32gLLL	32bb-LLL	.
32f	32aa-	.
32en	32gg	.
32fJJJ	32aa-JJJ	.
=88	=88	=88
32DLLL	32fLLL	.
32F	32bn	.
32Bn	32dd	.
32dJJJ	32ffJJJ	.
32e-XLLL	32ggLLL	.
32d	32ff	.
32c#	32een	.
32dJJJ	32ffJJJ	.
32BBnLLL	32dLLL<	.
32D	32g	.
32G	32b	.
32BJJJ	32ddJJJ	.
32c#LLL	32ee-LLL	.
32B	32dd	.
32A#	32cc#	.
32BJJJ	32ddJJJ	.
!!LO:LB:g=original
=89	=89	=89
8C 8E- 8G 8cL	32r	.
.	32gLLL	.
.	32ccn	.
.	32ee-JJJ	.
8F 8A- 8d	32r	.
.	32a-LLL	.
.	32dd	.
.	32ffJJJ	.
8G 8c 8e-	32r	.
.	32gLLL	.
.	32cc	.
.	32ee-JJJ	.
8G 8Bn 8dJ	32r	.
.	32fLLL<	.
.	32bn	.
.	32ddJJJ	.
=90	=90	=90
*>C1	*>C1	*>C1
8C 8E- 8G 8c	32r	.
.	32ccLLL	.
.	32bn	.
.	32ccJJJ	.
8r	32bLLL<	.
.	32cc	.
.	32g	.
.	32e-JJJ	.
16r	8c	.
32BBnLLL	.	.
32CJJJ	.	.
32BBLLL	8r	.
32C	.	.
32BB	.	.
32CJJJ	.	.
=91:|!	=91:|!	=91:|!
*>C2	*>C2	*>C2
*	*^	*
!	!	!LO:DY:b:i:t=m.g.	!
2ryy	4raa	32cLLL	.
.	.	32e-	.
.	.	32g	.
!	!	!LO:TX:a:i:t=m.d.	!
.	.	32ccJJJ	.
.	.	32ddLLL	.
.	.	32cc	.
.	.	32bn	.
.	.	32ccJJJ	.
!	!	!	!LO:DY:rj
.	32ccLLL	32A-LLL	ff
.	32ff	32c	.
.	32aa-	32f	.
.	32cccJJJ	32a-JJJ	.
.	32dddLLL	32b-LLL	.
.	32ccc	32a-	.
.	32bbn	32g	.
.	32cccJJJ	32a-JJJ	.
*	*v	*v	*
!!LO:LB:g=original
=92	=92	=92
*>D	*>D	*>D
32FLLL	32a-LLL	.
32A-	32cc	.
32c	32ff	.
32fJJJ	32aa-JJJ	.
32gLLL	32bb-XLLL	.
32f	32aa-	.
32en	32gg	.
32fJJJ	32aa-JJJ	.
32DLLL	32fLLL	.
32F	32bn	.
32Bn	32dd	.
32dJJJ	32ffJJJ	.
32e-LLL	32ggLLL	.
32d	32ff	.
32c#	32een	.
32dJJJ	32ffJJJ	.
=93	=93	=93
8BBn	32fLLL<	fp
.	32a-	.
.	32cc#	.
.	32ddJJJ	.
8r	32ee-LLL	.
.	32dd	.
.	32cc#	.
.	32ddJJJ	>
4r	32fLLL<	.
.	32a-	.
.	32cc#	.
.	32ddJJJ	.
.	32ee-LLL	.
.	32dd	.
.	32cc#	.
.	32ddJJJ	.
=94	=94	=94
2r	32fLLL<	.
.	32a-	.
.	32cc#	.
.	32ddJJJ	.
.	32ee-LLL	.
.	32dd	.
.	32cc#	.
.	32ddJJJ	.
.	32fLLL<	.
.	32a-	.
.	32cc#	.
.	32ddJJJ	.
.	32ee-LLL	.
.	32dd	.
.	32cc#	.
.	32ddJJJ	.
!!LO:LB:g=original
=95	=95	=95
8BBB-X 8BB-X	32fLLL<	.
.	32a-	.
.	32cc#	.
.	32ddJJJ	.
!	!LO:TX:a:B:t=Ritard.	!
8r	32ee-LLL	.
.	32dd	.
.	32cc#	.
.	32ddJJJ	.
4r	32fLLL<	.
.	32a-	.
.	32cc#	.
.	32ddJJJ	.
.	32ee-LLL	.
.	32dd	.
.	32cc#	.
.	32ddJJJ	.
=96	=96	=96
2r	32fLLL<	.
.	32a-	.
.	32cc#	.
.	32ddJJJ	.
.	32ee-LLL	pp
.	32dd	.
.	32cc#	.
.	32ddJJJ	.
.	(8.ff^<L	.
.	16ee-Jk)	.
=97	=97	=97
*^	*^	*
!	!	!LO:TX:a:B:t=a Tempo	!	!
4.ryy	16BB-LL	(8ee-L	4.f 4.a-	p
.	16B-	.	.	.
.	16B-	[8ddJ)	.	.
.	16B-JJ	.	.	.
.	16B-LL	(16ddLL]	.	.
.	16B-	16ff	.	.
(8e-	16e-	16ee-	8g	.
.	16B-JJ	16ccJJ)	.	.
=98	=98	=98	=98	=98
4d)	16dLL	(8ccL	4f	.
.	16B-	.	.	.
.	16B-	[8b-J)	.	.
.	16B-JJ	.	.	.
4ryy	16B-LL	(16b-LL]	8r	.
.	16B-	16bn	.	.
.	16D	16cc	8f	.
.	16B-JJ	16a-JJ)	.	.
*v	*v	*	*	*
*	*v	*v	*
!!LO:LB:g=original
=99	=99	=99
16E-LL	(16a-LL	.
16B-	16g	.
16G	16b-X	.
16B-JJ	16e-JJ)	.
16F 16A-LL	(16e-LL	.
16B-	16d	.
16E- 16G	16f	.
16B-JJ	[16e-JJ)	.
=100	=100	=100
16BB-LL	(8e-] 8gL	.
16B-	.	.
16B-	8d) 8fJ	.
16B-JJ	.	.
*clefG2	*	*
(16a- 16ccLL	(8.ff^L	.
16B-	.	.
16g 16b-	.	.
16B-JJ)	16ee-Jk)	.
=101	=101	=101
*^	*	*
.	.	(32qddLLL	.
.	.	32qee-	.
.	.	32qffJJJ	.
4a-	16fLL	(8ee-L)	.
.	16B-	.	.
.	16B-	[8ddJ)	.
.	16B-JJ	.	.
(8a-L	16fLL	(24ddLL]	.
.	.	24ee-	.
.	16B-	.	.
.	.	24ddJJ	.
8gJ)	16e-	24ffLL	.
.	.	24ee-)	.
.	16B-JJ	.	.
.	.	24cc'JJ	.
=102	=102	=102	=102
4f	16dLL	(8anL<	.
.	16B-	.	.
.	16B-	[8b-J)	.
.	16B-JJ	.	.
*v	*v	*	*
*clefF4	*	*
*^	*	*
4ryy	16B-LL	(24b-LL]	.
.	.	24cc	.
.	16B-	.	.
.	.	24bnJJ	.
.	16D	24ddLL	.
.	.	24cc)	.
.	16B-JJ	.	.
.	.	24a-'JJ	.
*v	*v	*	*
!!LO:LB:g=original
=103	=103	=103
*	*^	*
16E-LL	(<24gLL	8r	.
.	24a-	.	.
16B-	.	.	.
.	24gJJ	.	.
16AA-	24b-LL)	8c	.
.	24a-'	.	.
16A-JJ	.	.	.
.	24f'JJ	.	.
16BB-LL	(8e-SSsL	8GL	.
16BB-	.	.	.
16BBB-	16gL	8A- 8dJ	.
16BB-JJ	16fJJ	.	.
*	*v	*v	*
=104	=104	=104
*^	*	*
4ryy	8EE-L	8G 8e-)	.
.	8E-J	8r	.
8rA	16rD	32GLLL	.
.	.	32B-	.
.	(>16B-LL	32e-	.
.	.	32gJJJ	.
8G	16G	32b-LLL	.
.	.	32ee-	.
.	16B-JJ	32gg	.
.	.	32ffJJJ	.
=105	=105	=105	=105
8A-L	16A-LL	(8ee-L	.
.	16B-	.	.
8FJ	16F	8ddJ))	.
.	16B-JJ	.	.
8GL	16GLL	16ee-'LL	<
.	16B-	16ff'	.
8E-J	16E-	16gg'	.
.	16B-JJ)	16aan'JJ	[[
*Xflip	*Xflip	*	*
=106	=106	=106	=106
4ryy	16BB-LL	(8cccL	sf
.	16B-	.	.
.	16B-	8bb-J)	.
.	16B-JJ	.	.
8rA	16rD	32GLLL	.
.	.	32B-	.
.	(>16B-LL	32e-	.
.	.	32gJJJ	.
8G	16G	32b-LLL	.
.	.	32ee-	.
.	16B-JJ	32gg	.
.	.	32ffJJJ	.
!!LO:LB:g=original
=107	=107	=107	=107
8A-L	16A-LL	8ee-L	.
.	16B-	.	.
8FJ	16F	8ddtJ	.
.	16B-JJ	.	.
.	.	(16qccLL	.
.	.	16qddJJ	.
8GL	16GLL	16ee-'LL)	.
.	16B-	16f' 16ff'	.
8E-J	16E-	16g' 16gg'	.
.	[>16B-JJ)	16an' 16aan'JJ	.
=108	=108	=108	=108
4ryy	4BB-; 4B-;]	4b-; 4bb-;	sf
*v	*v	*	*
*clefG2	*	*
*^	*	*
(8ccL	16a-LL	8.ff (8.fffL	p
.	16B-	.	.
8b-J)	16g	.	.
.	16B-JJ	16ee- 16eee-Jk)	.
=109	=109	=109	=109
4a-	16fLL	8ee- (8eee-L	<
.	16B-	.	.
.	16B-	[8dd [8dddJ)	.
.	16B-JJ	.	.
8a-L	16fLL	16dd] (16dddLL]	.
.	16B-	16ff 16fff	.
8gJ	16e-	16ee- 16eee-	.
.	16B-JJ	16cc 16cccJJ)	[[
=110	=110	=110	=110
4f	16dLL	8an (8aanL	rfz
.	16B-	.	.
.	16B-	[8b- [8bb-J)	.
.	16B-JJ	.	.
*v	*v	*	*
*clefF4	*	*
*^	*	*
4ryy	16B-LL	16b-] (16bb-LL]	.
.	16B-	16bn 16bbn	.
.	16D 16d	16cc 16ccc	.
.	16B-JJ	16a- 16aa-JJ)	.
*v	*v	*	*
=111	=111	=111
*	*^	*
16E- 16e-LL	4ryy	16g (16ggLL	.
16G	.	16b-X 16bb-X	.
16AA-	.	16cc 16aa-	.
16A-JJ	.	16a- 16ffJJ)	.
16BB-LL<	(8ee-SSsL	8gL	.
16B-	.	.	.
!LO:TX:b:i:t=m.g.	!	!	!
16BBB-	16ggL	8a- 8ddJ	.
16BB-JJ	16ffJJ)	.	.
*	*v	*v	*
!!LO:LB:g=original
=112	=112	=112
(8EE-L	8g 8ee-	.
8E-J)	8r	.
!	!	!LO:DY:b=2:rj
32GGGLLL	16r	f
32BBB-	.	.
32EE-	16B-LL	.
32GGJJJ	.	.
32BB-LLL	16B-	.
32E-	.	.
32G	16B-JJ	.
32FJJJ	.	.
=113	=113	=113
*	*^	*
(8E-L	4ryy	16A- 16B-LL	.
.	.	16A- 16B-	.
8DJ)	.	16A- 16B-	.
.	.	16A- 16B-JJ	.
4r	8rff	16G 16B-LL	.
.	.	16G 16B-	.
!	!	!	!LO:DY:a:rj
.	8ee-	16G 16B-	p
.	.	16G 16B-JJ	.
=114	=114	=114	=114
4r	(8ee-L	16A- 16B-LL	.
.	.	16A- 16B-	.
.	8ddJ)	16A- 16B-	.
.	.	16A- 16B-JJ	.
!	!	!	!LO:DY:b=2
32GGGLLL	4ryy	16G 16B-LL	f
32BBB-	.	.	.
32EE-	.	16G 16B-	.
32GGJJJ	.	.	.
32BB-LLL	.	16G 16B-	.
32E-	.	.	.
32G	.	16G 16B-JJ	.
32FJJJ	.	.	.
=115	=115	=115	=115
(8E-L	4ryy	16A- 16B-LL	.
.	.	16A- 16B-	.
8DJ)	.	16A- 16B-	.
.	.	16A- 16B-JJ	.
4ryy	8rff	16G 16B-LL	.
.	.	16G 16B-	.
!	!	!LO:TX:a:i:t=m.g.	!LO:DY:a:rj
.	8ee-'	16G 16B-	p
.	.	16G 16B-JJ	.
!!LO:LB:g=original
=116	=116	=116	=116
4ryy	(8eenL	16G 16B- 16cLL	.
.	.	16G 16B- 16c	.
.	8ffJ)	16A- 16c	.
.	.	16A- 16cJJ	.
32r	4ryy	16A- 16cLL	.
!	!	!	!LO:DY:b=2:rj
32CCLLL	.	.	f
32FF	.	16A- 16c	.
32AA-JJJ	.	.	.
32CLLL	.	16A- 16c	.
32F	.	.	.
32A-	.	16A- 16cJJ	.
32GJJJ	.	.	.
=117	=117	=117	=117
(8FL	4ryy	16B- 16cLL	.
.	.	16B- 16c	.
8EnJ)	.	16B- 16c	.
.	.	16B- 16cJJ	.
4ryy	8rff	16A- 16cLL	.
.	.	16A- 16c	.
!	!	!	!LO:DY:a:rj
.	8ff	16A- 16c	p
.	.	16A- 16cJJ	.
=118	=118	=118	=118
4ryy	(8ffL	16B- 16cLL	.
.	.	16B- 16c	.
.	8eenJ)	16B- 16c	.
.	.	16B- 16cJJ	.
16r	4ryy	16A- 16cLL	.
!	!	!	!LO:DY:b=2
16FFLL	.	16A- 16c	p
16FF	.	16A- 16c	.
16FFJJ	.	16A- 16cJJ	.
=119	=119	=119	=119
(32EEnLLL	4ryy	16B- 16cLL	.
32FF	.	.	.
32GG	.	16B- 16c	.
32FFJJ)	.	.	.
8EE'J	.	16B- 16c	.
.	.	16B- 16cJJ	.
4ryy	16raa	16A- 16cLL	.
!	!	!	!LO:DY:a:rj
.	16ffLL	16A- 16c 16f	rfz
.	16ff	16A- 16c 16f	.
.	16ffJJ	16A- 16c 16fJJ	.
!!LO:LB:g=original
=120	=120	=120	=120
4ryy	(32eenLLL	16B- 16c 16gLL	.
.	32ff	.	.
.	32gg	16B- 16c 16g	.
.	32ffJJ)	.	.
.	8ee'J	16B- 16c 16g	.
.	.	16B- 16c 16gJJ	.
16r	4ryy	16A- 16c 16fLL	.
!	!	!	!LO:DY:b=2:rj
16FFLL	.	16A- 16c 16f	p
16FF	.	16A- 16c 16f	.
16FFJJ	.	16A- 16c 16fJJ	.
=121	=121	=121	=121
(32DDLLL	4ryy	16A- 16B- 16fLL	.
32EE-	.	.	.
32FF	.	16A- 16B- 16f	.
32EE-JJ)	.	.	.
8DD'J	.	16A- 16B- 16f	.
.	.	16A- 16B- 16fJJ	.
4ryy	16raa	16G 16B- 16e-LL	.
.	16ee-XLL	16G 16B- 16e-	.
.	16ee-	16G 16B- 16e-	.
.	16ee-JJ	16G 16B- 16e-JJ	.
=122	=122	=122	=122
4ryy	(32ddLLL	16A- 16B- 16fLL	.
.	32ee-	.	.
.	32ff	16A- 16B- 16f	.
.	32ee-JJ)	.	.
.	8dd'J	16A- 16B- 16f	.
.	.	16A- 16B- 16fJJ	.
16r	4ryy	16G 16B- 16e-LL	f
!	!	!	!LO:DY:b=2:rj
16EE-LL	.	16G 16B- 16e-	f
16EE-	.	16G 16B- 16e-	.
16EE-JJ	.	16G 16B- 16e-JJ	.
*	*v	*v	*
=123	=123	=123
(32DDLLL	4A- 4B- 4a-	.
32EE-	.	.
32FF	.	.
32EE-JJJ)	.	.
16DD'LL	.	.
16BBB-'JJ	.	.
(32EE-LLL	4G 4B- 4g	.
32FF	.	.
32GG	.	.
32FFJJJ)	.	.
16EE-'LL	.	.
16BBB-'JJ	.	.
!!LO:LB:g=original
=124	=124	=124
4FF 4AA- 4BB- 4D	(32dLLL	.
.	32e-	.
.	32f	.
.	32e-JJJ)	.
.	16d'LL	.
.	16B-'JJ	.
8.GG 8.BB- 8.E-L	(32e-LLL	.
.	32f	.
.	32g	.
.	32fJJJ)	.
.	16e-'LL	.
16BB-Jk	16B-' 16b-'JJ	.
=125	=125	=125
(32DLLL	4a- 4b- 4aa-	.
32E-	.	.
32F	.	.
32E-JJJ)	.	.
16D'LL<	.	.
16BB-'JJ	.	.
(32E-LLL	8.g 8.b- 8.ggL	.
32F	.	.
32G	.	.
32FJJJ)	.	.
16E-'LL<	.	.
16BB-'JJ	16b-Jk	.
=126	=126	=126
4F 4A- 4B- 4d	(32ddLLL	.
.	32ee-	.
.	32ff	.
.	32ee-JJJ)	.
.	16dd'LL	.
.	16b-'JJ	.
8.G 8.B- 8.e-L	(32ee-LLL	.
.	32ff	.
.	32gg	.
.	32ffJJJ)	.
.	16ee-'LL<	.
16G 16B- 16d-Jk	16en 16eenJJ	.
=127	=127	=127
8A- 8c	(32f 32ffLLL>	f
.	32g	.
.	32a-	.
.	32gJJJ)	.
8r	16f'LL	.
.	16cc'JJ	.
4r	16a-'LL	.
.	16ff'	.
.	16cc'	.
.	16aa-'JJ	.
!!LO:LB:g=original
=128	=128	=128
8B- 8d	(32fLLL	fp
.	32g	.
.	32a-	.
.	32gJJJ)	.
8r	16f'LL<	.
.	16dd'JJ	.
4r	16a-'LL	.
.	16ff'	.
.	16dd'	.
.	16aa-'JJ	.
*clefG2	*	*
=129	=129	=129
8Bn 8f 8a-	(32ddLLL	pp
.	32ee-	.
.	32ff	.
.	32ee-JJJ)	.
8r	16dd'LL	.
.	16aa-'JJ	.
4r	16ff'LL	.
.	16ddd'	.
.	16aa-'	.
.	16fff'JJ	.
=130	=130	=130
8c 8e- 8g	16eee-'LL	.
.	(16ddd	.
8r	16eee-)	.
.	(16bbnJJ	.
8A- 8c 8f	16cccLL)	.
.	(16gg	.
8r	16aa-)	.
.	(16ffJJ	.
=131	=131	=131
8B- 8e- 8g	16bb-XLL)	.
.	(16ff#	.
8r	16gg)	.
.	(16ee-JJ	.
*clefF4	*	*
8BB- 8B-	16aa-LL)	.
.	(16een	.
8r	16ffn)	.
.	(16ddJJ	.
!!LO:LB:g=original
=132	=132	=132
4EE- 4E-	4ee-)	.
*clefG2	*	*
8ccL	8r	.
!	!	!LO:DY:a:rj
(16.cctL	8een 8gg	p
64bnLL	.	.
64ccJJJJ)	.	.
=133	=133	=133
(8a-L	8ff (8aa-L	.
8fJ)	8aa- 8cccJ)	.
8b-XT<L	8r	.
(16.b-L	8dd 8ff	.
64anLL	.	.
(64b-JJJJ)	.	.
=134	=134	=134
8gL	(8ee-X 8ggL	.
8e-J)	8gg 8bb-J)	.
8d 8f 8a-XL	8bb-L	.
8B- 8f 8a-J	(16.bb-TL	.
.	64aanLL	.
.	64bb-JJJJ)	.
=135	=135	=135
4e- 4g	(16aa-XLL	.
.	16gg	.
.	16ff	.
.	16ee-JJ	.
4c 4e- 4an	16ddLL	.
.	16ee-	.
.	16een	.
.	16ffJJ)	.
*clefF4	*	*
=136	=136	=136
8B- 8d	8b-	.
8r	8r	.
!	!	!LO:DY:a=2
8B-L	8r	f
(16.B-TL	8g' 8cc' 8een'	.
64AnLL	.	.
64B-JJJJ)	.	.
!!LO:LB:g=original
=137	=137	=137
(8A-L	8cccL	.
8FJ)	(16.cccTL	.
.	64bbnLL	.
.	64cccJJJJ)	.
8A-L	8r	.
(16.A-TL	8f' 8b-' 8dd'	.
64GLL	.	.
64A-JJJJ)	.	.
=138	=138	=138
*^	*	*
4ryy	(8GL	8bb-XL	.
.	8E-J)	(16.bb-TL	.
.	.	64aanLL	.
.	.	64bb-JJJJ)	.
4F 4A- 4B-	8DL	8r	.
.	8BB-J	(16.bb-TLL	f
.	.	64aanLL	.
.	.	64bb-JJJJ)	.
*v	*v	*	*
=139	=139	=139
8E-' 8G' 8B-'L	(16aa-XLL	p
.	16gg)	.
8G' 8B-' 8e-'	(16ffM	.
.	16ee-JJ)	.
8B-' 8d' 8f'	(16ee-LLM	.
.	16dd)	.
8A-' 8B-' 8d' 8f'J	(16ccM	.
.	16b-JJ)	.
=140	=140	=140
*^	*	*
8G 8B- 8e-	4ryy	16b-'LL	.
.	.	(32ccL	.
.	.	32ddJJJ	.
8r	.	32ee-LLL	.
.	.	32ff	.
.	.	32gg	.
.	.	32aa-JJJ)	.
4F 4A- 4B-	8DL	16bb-'LL	f
.	.	(32aanL	.
.	.	32bb-JJJ	.
.	8BB-J	32aaLLL	.
.	.	32bb-	.
.	.	32ccc	.
.	.	32bb-JJJ)	.
*v	*v	*	*
!!LO:LB:g=original
=141	=141	=141
8E-' 8G' 8B-'L	16r	.
!	!	!LO:DY:rj
.	(32aa-XLLL	p
.	32ggJJJ)	.
8G' 8B-' 8e-'	16r	.
.	(32ffLLL)	.
.	32ee-JJJ)	.
8B-' 8d' 8f'	16r	.
.	(32ee-LLL	.
.	32ddJJJ)	.
8A-' 8B-' 8d' 8f'J	16r	.
.	(32ccLLL	.
.	32b-JJJ)	.
=142	=142	=142
8G 8B- 8e-	(32anLLL	.
.	32b-	.
.	32cc	.
.	32ddJJJ	.
8r	32ee-LLL	.
.	32ff	.
.	32ggn	.
.	32aa-JJJ	.
(8DD 8DL	32aanLLL	f
.	32bb-	.
.	32aa	.
.	32bb-JJJ	.
8BBB-) 8BB-J	32aaLLL	.
.	32bb-	.
.	32ccc	.
.	32bb-JJJ)	.
=143	=143	=143
4EE- 4E-	32aa-XLLL	.
.	32gg	.
.	32ff	.
.	32ee-JJJ	.
.	32ddLLL	.
.	32ee-	.
.	32ff	.
.	32ee-JJJ	.
4CC 4C	32ddLLL	.
.	32cc	.
.	32b-	.
.	32anJJJ	.
.	32ee-LLL	.
.	32a	.
.	32ee-	.
.	32aJJJ	.
!!LO:LB:g=original
=144	=144	=144
8BBB- 8BB-	32ccLLL	p
.	32b-	.
.	32an	.
.	32b-JJJ	.
8r	32bnLLL	.
.	32cc	.
.	32cc#	.
.	32ddJJJ	.
4r	32ee-LLL	.
.	32een	.
.	32ff	.
.	32ff#JJJ	.
.	32ggLLL	.
.	32aa-	.
.	32aan	.
.	32bb-JJJ	.
=145	=145	=145
2r	(24bbn'LL	pp
.	24ccc	.
.	24ccc#'JJ	.
.	24ddd'LL	.
.	24eee-'	.
.	24eeen'JJ)	.
.	(8.fffL	.
.	16eee-Jk)	.
*clefG2	*	*
=146	=146	=146
*^	*	*
.	.	(32qbbnLLL	.
.	.	32qccc	.
.	.	32qdddJJJ	.
4a-	16fLL	(8eee-L)	.
.	16B-	.	.
.	16B-	[8dddJ)	.
.	16B-JJ	.	.
8a-L	16fLL	(16dddLL]	.
.	16B-	16fff	.
8gJ	16e-	16eee-	.
.	16B-JJ	16cccJJ)	.
=147	=147	=147	=147
.	.	(32qbbnLLL	.
.	.	32qccc	.
.	.	32qdddJJJ	.
4f	16dLL	(8cccL)	.
.	16B-	.	.
.	16B-	[8bb-XJ)	.
.	16B-JJ	.	.
8r>	16B-LL<	(16bb-LL]	.
.	16B-JJ	16bbn	.
*v	*v	*	*
*clefF4	*	*
*^	*	*
16dLL	(8D	16ccc	.
16B-JJ	.	16aa-JJ)	.
!!LO:LB:g=original
=148	=148	=148	=148
*	*	*^	*
16e-LL	8E-L	(16aa-LL	8r	.
16B-	.	16gg	.	.
16g	8G	16bb-	8b-L	.
16B-JJ	.	16ee-JJ	.	.
16fLL	8F	16ee-LL	8a-	.
16B-	.	16dd	.	.
16e-	8E-J)	16ff	8gJ	.
16B-JJ	.	16ee-JJ)	.	.
*v	*v	*	*	*
*	*v	*v	*
=149	=149	=149
16BB-LL	8ee- (8ggL	.
16B-	.	.
16B-	8dd 8ffJ)	.
16B-JJ	.	.
*clefG2	*	*
16a- 16ccLL	16r	<
16B-	8ff 8fffL	.
16g 16b-	.	.
16B-JJ	[16een [16eeenJk	.
=150	=150	=150
16f# 16anLL	16ee] 16eeeLK]	.
16B-	8ee- (8eee-	.
16fn 16a-	.	.
16B-JJ	8dd 8ddd	.
16en 16gLL	.	.
16B-	8dd- 8ddd-	.
16e- 16g-	.	.
16B-JJ	[16cc [16cccJk	.
=151	=151	=151
16d 16fLL	16cc] 16cccLK]	.
16B-	8cc- 8ccc-	.
16d- 16f-	.	.
16B-JJ	8b- 8bb-	.
16c 16e-LL	.	.
16B-	8an 8aan	.
16dn 16fn	.	.
16B-JJ	[16a- [16aa-Jk)	[[
*clefF4	*	*
=152	=152	=152
*	*^	*
16E-LL	8ryy	16a-] 16aa-LL]	fp
16e-	.	16g 16ggJJ	.
16AA-	(24bb-LL	8cc	.
.	24aa-	.	.
16A-JJ	.	.	.
.	24ffJJ)	.	.
16BB-LL<	(8ee-SSsL	8gL	.
16B-	.	.	.
16BBB-	16ggL	8a- 8ddJ	.
16BB-JJ	16ffJJ)	.	.
*	*v	*v	*
!!LO:LB:g=original
=153	=153	=153
*^	*	*
16E-zLL	8EE-	8g 8ee-	.
16BB-	.	.	.
16BB-	8r	8r	.
16BB-JJ	.	.	.
16BB-LL	8r	(32GLLL	.
.	.	32B-	.
16BB-	.	32e-	.
.	.	32gJJJ	.
!	!LO:DY:rj	!	!
16G	(8GGz	32b-zLLL	.
.	.	32ee-	.
16BB-JJ	.	32gg	.
.	.	32ffJJJ)	.
=154	=154	=154	=154
16A-LL	8AA-L)	(8ee-L	.
16BB-	.	.	.
16F	8FF	8ddJ)	.
16BB-JJ	.	.	.
16GLL	8GG	16ee-'LL	.
16BB-	.	16ff'	.
16E-	8EE-J	16gg'	.
16BB-JJ	.	16aan'JJ	.
=155	=155	=155	=155
16r	8BBB-	(8cccL	sf
16BB-LL	.	.	.
16BB-	8r	8bb-J)	.
16BB-JJ	.	.	.
16BB-LL	8r	(32GLLL	.
.	.	32B-	.
16BB-	.	32e-	.
.	.	32gJJJ	.
!	!LO:DY:rj	!	!
(16G	8GGz	32b-zLLL	.
.	.	32ee-	.
16BB-JJ	.	32gg	.
.	.	32ffJJJ)	.
=156	=156	=156	=156
16A-LL)	8AA-L	(32ee-LLL	.
.	.	32dd	.
16BB-	.	32cc	.
.	.	32b-JJJ	.
16F	8FF	32anLLL	.
.	.	32b-	.
16BB-JJ	.	32cc	.
.	.	32ddJJJ)	.
16GLL	8GG	16ee-LL	f
16BB-	.	16f' 16ff'	.
16E-	8EE-J	16g' 16gg'	.
16BB-JJ	.	16an' 16aan'JJ	.
*v	*v	*	*
=157	=157	=157
2BBB-; 2BB-;	2b-; 2bb-;	f
.	.	>
.	.	]]
!!LO:LB:g=original
=158	=158	=158
16BBBn 16BBn	4bn 4bbn	pp
16BnLL	.	.
16B	.	.
16BJJ	.	.
16BLL	4r	.
16B	.	.
16B	.	.
16BJJ	.	.
=159	=159	=159
*	*^	*
16BnLL	4r	4r	.
16B	.	.	.
16B	.	.	.
16BJJ	.	.	.
16BLL	8.ff#L	[4f# [4an	pp
16B	.	.	.
16B	.	.	.
16BJJ	16eenJk	.	.
=160	=160	=160	=160
*^	*	*	*
4.ryy	16BBnLL	(8eenL	4.f#X] 4.anX]	.
.	16Bn	.	.	.
.	16B	[8dd#J)	.	.
.	16BJJ	.	.	.
.	16BLL	(16dd#LL]	.	.
.	16B	16ff#	.	.
(8en	16en	16ee	(8g#	.
.	16BJJ	16cc#JJ)	.	.
=161	=161	=161	=161	=161
4d#)	(16d#LL)	(8cc#L	4f#)	.
.	16Bn	.	.	.
.	16B	[8bnJ)	.	.
.	16BJJ	.	.	.
4ryy	16BLL	(16bLL]	8r	.
.	16B	16b#	.	.
.	16D#	16cc#	8f#	.
.	16BJJ	16anJJ)	.	.
*v	*v	*	*	*
*	*v	*v	*
=162	=162	=162
(16EnLL	(16anLL	pp
16Bn	16g#	.
16G#	16bn	.
16BJJ	16enJJ	.
16F# 16AnLL	16eLL	.
16B	16d#	.
16E 16G#	16f#	.
16BJJ)	16eJJ)	.
!!LO:LB:g=original
=163	=163	=163
(16D# 16F#LL	(16g#LL	.
16Bn	16f#	.
16G#	16bn	.
16BJJ	16enJJ	.
16F# 16AnLL	16eLL	.
16B	16d#	.
16En 16G#	16f#	.
16BJJ)	16eJJ)	.
=164	=164	=164
*^	*	*
16F#LL	8D#L	4r	.
16Bn	.	.	.
!	!	!	!LO:DY:b=2
16Fn	[8DnJ	.	ffp
[16BJJ	.	.	.
!	!	!	!LO:DY:a
16BLL]	8D] 8FL	[4a-X [4aa-X	ffp
16B	.	.	.
16F	8DJ	.	.
16BnJJ	.	.	.
*v	*v	*	*
=165	=165	=165
(16E-XLL	16a-] (16aa-LL]	.
16B-X	16gn 16ggn	.
16G	16b-X 16bb-X	.
16B-JJ	16e-X 16ee-XJJ)	.
16Fn 16A-XLL	16e- (16ee-LL<	.
16B-	16dn 16ddn	.
16E- 16G	16fn 16ffn	.
16B-JJ)	16e- 16ee-JJ)	.
=166	=166	=166
16D (16FLL	16g (16ggLL	<
16B-	16f 16ff	.
16G	16b- 16bb-	.
16B-JJ	16e- 16ee-JJ)	.
16F 16A-LL	(16ee-LL<	.
16B-	16d 16dd	.
16E- 16G	16f 16ff	.
16B-JJ)	16e- 16ee-JJ)	.
=167	=167	=167
16D 16FLL	16g (16ggLL	.
16B-	16f 16ff)	.
16D- 16E-	16a- (16aa-	.
16B-JJ	16g 16ggJJ)	.
16C 16E-LL	16b- (16bb-LL	.
16c	16a- 16aa-)	.
16GG 16E-	16cc (16ccc	.
16GJJ	16bn 16bbnJJ)	[
!!LO:LB:g=original
=168	=168	=168
16AA-LL	16dd (16dddLL	f >
16C	16cc 16ccc	.
16F	16b-X 16bb-X	.
16A-JJ	16a- 16aa-JJ	.
16BB-LL	16g 16ggLL	.
16F 16A-	16f 16ff	.
16B-	16a- 16aa-	.
16F 16A-JJ	16d 16ddJJ)	]
=169	=169	=169
32E-LLL	4e-\ 4ee-\	p
32G	.	.
32B-	.	.
32e-JJJ	.	.
32B-LLL	.	.
32e-	.	.
32B-	.	.
32GJJJ	.	.
32E-LLL	8r	.
32G	.	.
32B-	.	.
32e-JJJ	.	.
.	(8qg	.
32B-LLL	8gg')	<
32e-	.	.
32B-	.	.
32GJJJ	.	.
=170	=170	=170
.	(8qb-	.
32GGLLL<	4bb-)	.
32BB-	.	.
32E-	.	.
32GJJJ	.	.
32E-LLL	.	.
32G	.	.
32E-	.	.
32BB-JJJ	.	.
32GGLLL<	8r	.
32BB-	.	.
32E-	.	.
32GJJJ	.	.
.	(8qee-	.
32E-LLL	8eee-')	.
32G	.	.
32E-	.	.
32BB-JJJ	.	.
!!LO:LB:g=original
=171	=171	=171
.	(8qF	.
32AA-LLL<	4f')	.
32C	.	.
32E-	.	.
32FJJJ	.	.
32E-LLL	.	.
32F	.	.
32E-	.	.
32CJJJ	.	.
32AA-LLL<	8r	.
32C	.	.
32E-	.	.
32FJJJ	.	.
.	(8qcc	.
32E-LLL	8ccc')	.
32F	.	.
32E-	.	.
32FJJJ	.	.
=172	=172	=172
32BB-LLL	[4b-z [4bb-z	.
32A-	.	.
32D	.	.
32A-JJJ	.	.
32FLLL	.	.
32A-	.	.
32D	.	.
32A-JJJ	.	.
32BB-LLL	16b-] (16bb-LL]	.
32A-	.	.
32D	16an 16aan	.
32A-JJJ	.	.
32FLLL	16a- 16aa-	.
32A-	.	.
32D	16f 16ffJJ)	.
32A-JJJ	.	.
=173	=173	=173
32E-LLL	4e-\ 4ee-\	p
32G	.	.
32B-	.	.
32e-JJJ	.	.
32B-LLL	.	.
32e-	.	.
32B-	.	.
32GJJJ	.	.
32E-LLL	8r	.
32G	.	.
32B-	.	.
32e-JJJ	.	.
.	(8qg	.
32B-LLL	8gg'z)	.
32e-	.	.
32B-	.	.
32GJJJ	.	.
!!LO:LB:g=original
=174	=174	=174
.	(8qb-	.
32GGLLL<	4bb-z')	.
32BB-	.	.
32E-	.	.
32GJJJ	.	.
32E-LLL	.	.
32G	.	.
32E-	.	.
32BB-JJJ	.	.
32GGLLL<	8r	.
32BB-	.	.
32E-	.	.
32GJJJ	.	.
.	(8qee-	.
32E-LLL	8eee-'z)	.
32G	.	.
32E-	.	.
32BB-JJJ	.	.
=175	=175	=175
.	(8qA-	.
32AA-LLL<	4a-'z)	.
32C	.	.
32E-	.	.
32FJJJ	.	.
32E-LLL	.	.
32F	.	.
32E-	.	.
32CJJJ	.	.
32AA-LLL<	8r	.
32C	.	.
32E-	.	.
32FJJJ	.	.
.	(8qee-	.
32E-LLL	8eee-'z)	.
32F	.	.
32E-	.	.
32CJJJ	.	.
=176	=176	=176
.	(8qAn	.
32AAnLLL<	4an'z)	.
32C	.	.
32E-	.	.
32FJJJ	.	.
32E-LLL	.	.
32F	.	.
32E-	.	.
32CJJJ	.	.
32AALLL<	8r	.
32C	.	.
32E-	.	.
32FJJJ	.	.
.	(8qee-	.
32E-LLL	8eee-'z)	.
32F	.	.
32E-	.	.
32CJJJ	.	.
!!LO:LB:g=original
=177	=177	=177
32BB-LLL	8B- 8b-	.
32E-	.	.
32G	.	.
32B-JJJ	.	.
32GLLL	4b-z (4bb-z	>
32B-	.	.
32G	.	.
32E-JJJ	.	.
32BB-LLL	.	.
32E-	.	.
32G	.	.
32B-JJJ	.	.
32GLLL	16a-X 16aa-XLL	.
32B-	.	.
32G	16g 16ggJJ)	.
32E-JJJ	.	]
=178	=178	=178
32BB-LLL	[4g [4gg	p
32A-	.	.
32B-	.	.
32A-JJJ	.	.
32B-LLL	.	.
32A-	.	.
32B-	.	.
32A-JJJ	.	.
32BB-LLL	16g] (16ggLL]	.
32A-	.	.
32B-	16f 16ff	.
32A-JJJ	.	.
32B-LLL	16a- 16aa-	.
32A-	.	.
32B-	16d 16ddJJ)	.
32A-JJJ	.	.
=179	=179	=179
32E-LLL	4e-\ 4ee-\	.
32G	.	.
32B-	.	.
32e-JJJ	.	.
32B-LLL	.	.
32e-	.	.
32B-	.	.
32GJJJ	.	.
32E-LLL	8r	.
32G	.	.
32B-	.	.
32e-JJJ	.	.
32B-LLL	[8g [8gg	<
32e-	.	.
32B-	.	.
32GJJJ	.	[[
!!LO:LB:g=original
=180	=180	=180
32E-LLL	8g] (8ggL]	>
32A-	.	.
32B-	.	.
32dJJJ	.	.
32B-LLL	8f 8ffJ)	]
32d	.	.
32B-	.	.
32A-JJJ	.	.
32E-LLL	8r	.
32A-	.	.
32B-	.	.
32dJJJ	.	.
.	(8qb-	.
32B-LLL	8bb-)	.
32d	.	.
32B-	.	.
32A-JJJ	.	.
=181	=181	=181
.	(8qee-	.
32E-LLL	4eee-)	.
32G	.	.
32B-	.	.
32e-JJJ	.	.
32B-LLL	.	.
32e-	.	.
32B-	.	.
32GJJJ	.	.
32E-LLL	8r	.
32G	.	.
32B-	.	.
32e-JJJ	.	.
32B-LLL	[8g [8gg	<
32e-	.	.
32B-	.	.
32GJJJ	.	[[
=182	=182	=182
32E-LLL	8g] (8ggL]	>
32A-	.	.
32B-	.	.
32dJJJ	.	.
32B-LLL	8f 8ffJ)	]
32d	.	.
32B-	.	.
32A-JJJ	.	.
32E-LLL	8r	.
32A-	.	.
32B-	.	.
32dJJJ	.	.
.	(8qb-	.
32B-LLL	8bb-)	.
32d	.	.
32B-	.	.
32A-JJJ	.	.
!!LO:LB:g=original
=183	=183	=183
.	(8qe-	.
32E-LLL	4ee-)	>
32G	.	.
32B-	.	.
32e-JJJ	.	.
32B-LLL	.	.
32e-	.	.
32B-	.	.
32GJJJ	.	.
32BB-LLL	8r	.
32E-	.	.
32G	.	.
32B-JJJ	.	.
.	(8qg	.
32GLLL	8gg)	.
32B-	.	.
32G	.	.
32E-JJJ	.	.
=184	=184	=184
.	(8qb-	.
32GGLLL<	4bb-)	.
32BB-	.	.
32E-	.	.
32GJJJ	.	.
32E-LLL	.	.
32G	.	.
32E-	.	.
32BB-JJJ	.	.
32EE-LLL	8r	.
32GG	.	.
32BB-	.	.
32E-JJJ	.	.
.	(8qee-	.
32BB-LLL	8eee-)	.
32E-	.	.
32BB-	.	.
32GGJJJ	.	.
=185	=185	=185
32EE-LLL	8G 8e-	pp
32GG	.	.
32BB-	.	.
32E-JJJ	.	.
32BB-LLL	8r	.
32E-	.	.
32BB-	.	.
32GGJJJ	.	.
32EE-LLL	8G 8B- 8e-	.
32GG	.	.
32BB-	.	.
32E-JJJ	.	.
32BB-LLL	8r	.
32E-	.	.
32BB-	.	.
32GGJJJ	.	.
=186	=186	=186
8EE-	8G 8B- 8e-	.
8r;	8r;	.
==	==	==
*-	*-	*-
!!!RDF**kern: > = above
!!!RDF**kern: < = below
!!!RDF**kern: i = editorial accidental
!!!verovio: beamFrenchStyle
!!!LOR: Durand 1915, plates 9327/9328, Paul Dukas, ed.
!!!PED: Dukas, Paul
!!!URL-vhv: https://verovio.humdrum.org/?file=beethoven/sonatas/sonata04-4.krn
!!!URL-pdf: https://github.com/craigsapp/beethoven-piano-sonatas/blob/master/reference-edition/sonata04-4.pdf
!!!ENC: Craig Stuart Sapp
!!!END: 2008/11/03
!!!EED: Craig Stuart Sapp
!!!EEV: 2024/02/19
